!!!OTL: St. Ursula, Koenigstochter von England. / (Legende.)
!!!ARE: Europa, Mitteleuropa, Deutschland
!!!SCT: A0619
!!!TXL: @@GMH
!!!YEM: Copyright 1995, estate of Helmut Schaffrath.
**kern	**text
*M3/2	*
*met(3)	*
*clefC1	*
*k[b-]	*
*F:	*
=1	=1
!LO:TX:a:t=F dur mit d moll-Schluß	!
!LO:N:vis=1	!
{2f	Vi-
!LO:N:vis=1	!
2f	-o-
!LO:N:vis=1	!
2g	-ne-
=2	=2
!LO:N:vis=0	!
1a	-tus
!LO:N:vis=1	!
2g	in
=3	=3
*lig	*
!LO:N:vis=1	!
2f	En-
!LO:N:vis=1	!
2e	.
*Xlig	*
!LO:N:vis=1	!
2d	-gel-
=4	=4
!LO:N:vis=0.	!
1.c}	-land,
=5	=5
!LO:N:vis=1	!
{2f	ein
!LO:N:vis=1	!
2f	Kö-
!LO:N:vis=1	!
2g	-nig
=6	=6
!LO:N:vis=0	!
1a	mäch-
!LO:N:vis=1	!
2g	-tig
=7	=7
!LO:N:vis=0.	!
1.a}	ſehr,}
=8	=8
!LO:TX:a:t=F dur mit d moll-Schluß	!
!LO:N:vis=1	!
{2f	Sein
!LO:N:vis=1	!
2f	Tochter
!LO:N:vis=1	!
2g	.
=9	=9
!LO:N:vis=0	!
1a	Ur-
!LO:N:vis=1	!
2g	-ſu-
=10	=10
*lig	*
!LO:N:vis=1	!
2f	-la
!LO:N:vis=1	!
2e	.
*Xlig	*
!LO:N:vis=1	!
2d	ge-
=11	=11
!LO:N:vis=0.	!
1.c}	-nant,
=12	=12
!LO:N:vis=1	!
{2f	der
!LO:N:vis=1	!
2f	Jungfrawſchaft
!LO:N:vis=1	!
2g	.
=13	=13
!LO:N:vis=0	!
1a	.
!LO:N:vis=1	!
2g	ein
=14	=14
!LO:N:vis=0.	!
1.a}	Ehr.}
=15	=15
!LO:N:vis=1	!
{2a	Weil
!LO:N:vis=1	!
2g	ſie
!LO:N:vis=1	!
2f	mit
=16	=16
!LO:N:vis=0	!
1b-	Chri-
!LO:N:vis=1	!
2a	-ſti
=17	=17
!LO:N:vis=0	!
1g	Blut
!LO:N:vis=1	!
2f	er-
=18	=18
!LO:N:vis=0.	!
1.g}	-kauft
=19	=19
!LO:N:vis=1	!
{2a	und
!LO:N:vis=1	!
2g	nach
!LO:N:vis=1	!
2f	des
=20	=20
!LO:N:vis=0	!
1b-	Höchſten
!LO:N:vis=1	!
2a	.
=21	=21
!LO:N:vis=0	!
1g	Will
!LO:N:vis=1	!
2f	ge-
=22	=22
!LO:N:vis=0.	!
1.g}	-tauft,
=23	=23
!LO:N:vis=1	!
{2e	hat
!LO:N:vis=1	!
2f	ſie
!LO:N:vis=1	!
2g	Chriſto
=24	=24
!LO:N:vis=0	!
1a	.
!LO:N:vis=1	!
2f	er-
=25	=25
!LO:N:vis=0	!
1e	-wählt
!LO:N:vis=1	!
2d	al-
=26	=26
!LO:N:vis=0.	!
1.e}	-lein
=27	=27
!LO:N:vis=1	!
{2cc	in
!LO:N:vis=1	!
2b-	Keuſch-
!LO:N:vis=1	!
2a	-heit
=28	=28
!LO:N:vis=0	!
1g	ſtets
!LO:N:vis=1	!
2f	ʒu
=29	=29
!LO:N:vis=0	!
1e	die-
!LO:N:vis=1	!
2e	-nen
=30	=30
!LO:N:vis=00.	!
1.d/}	fein.
==	==
!!!GTL: Geistliche Volkslieder
!!!AGN: Romanze, Ballade, Lied, religioeses Lied
!!  F - Dur mit d - moll Schluss. Coelner Gsgb 1625 S. 1625
!!!ONB: ESAC (Essen Associative Code) Database: ALTDEU
!!!AMT: simple triple
!!!AIN: vox
!!!EED: Helmut Schaffrath
!!!EEV: 1.0
!!!RDF**kern: l = terminal long
!!!URL-scan: https://rosdok.uni-rostock.de/mcrviewer/recordIdentifier/rosdok_ppn738218359/iview2/phys_0801.iview2?x=-1021.1722681204792&y=1056.6291141672991&scale=0.35534665417946304&rotation=0&layout=singlePageLayout&logicalDiv=log_0007
!!!ENC: Anna Maria Matuszewska
!!!EEV: 2024/25/03
*-	*-
